X:1
T:O Esca Viatorum, 77.67.76
T:O Esca Viatorum, 77.67.76
T:Louis Bourgeois, 1549
T:Public Domain Courtesy of the Cyber Hymnal™
C:Louis Bourgeois, 1549
Z:Public Domain
Z:Courtesy of the Cyber Hymnal™
%%score ( 1 2 ) ( 3 4 )
L:1/8
Q:1/4=115
M:none
K:G
V:1 treble 
V:2 treble 
V:3 bass 
V:4 bass 
V:1
 [B,E]4"^Quietly; may be sung in unison" E2 z x3 | [A,D]4 D4 | [CE]2 G4 z2 F2 | [DG]4 [DB]4 | %4
 B2 z [Ec]2 [DB]2 x | [DA]4 [B,G]4 D4 | [CE]2 [B,G]2 [CF]2 E2 | [^DB]8 | d4 | d2 z [DB]2 [CA]2 x | %10
 [B,G]4 [CE]4 [EA]4 | [FA]2 [EG]2 [DF]2 [CE]2 | G4 [A,D]4 E4 | [^DB]2 [EB]2 A4 z2 x6 | [B,E]8 |] %15
V:2
 x4 C3 (E2 B,) | x4 D4 | x2 B,2 D4 x2 | x8 | G3 (d2 F) x2 | x8 D4 | x6 E2 | x8 | D2 G2 | %9
 F3 c2 E x2 | x12 | x8 | D2 B,2 x2 E4 x2 | x4 E6 (F4 ^D2) | x8 |] %15
V:3
 [E,G,]4 [C,G,]2 [C,G,]2 x2 | G,2 F,2 [B,,G,]4 | G,4 [D,A,]4 x2 | [G,,B,]4 G,4 | %4
 [E,G,]2 [B,,B,]2 [C,G,]2 [G,,G,]2 | (G,2 F,2) [G,,G,]4 [G,B,]2 [F,A,]2 | %6
 [E,G,]2 [E,G,]2 [A,,A,]2 [C,A,]2 | [B,,F,]8 | [G,,B,]4 | %9
 [D,A,]2 [A,,A,]2 [B,,F,]2 ([C,E,][D,F,]) | [E,G,]4 [C,G,]4 [A,,C]4 | %11
 [D,D]2 [E,B,]2 [B,,B,]2 (G,A,) | B,2 G,2 [D,F,]4 (G,2 A,2) | %13
 [B,,F,]2 [G,,G,]2 [A,,C]4 [B,,B,]4 x4 | [E,,E,G,]8 |] %15
V:4
 x10 | D,4 x4 | C,2 E,2 x6 | x4 G,4 | x8 | D,4 x8 | x8 | x8 | x4 | x8 | x12 | x6 C,2 | %12
 G,,4 x2 C,4 x2 | x16 | x8 |] %15

